X: 21413
T: The Reel of Harden
%R: slip-jig	% Not reel!
B: James Oswald "The Caledonian Pocket Companion" v.2 p.141 #3
Z: 2018 John Chambers <jc:trillian.mit.edu>
M: 9/8
L: 1/8
K: Gmix
|:"_Brisk"\
TB2G GGG Bdg | TB2G GGG cAF | TB2G GGG gde | f2F (A/B/c)A f2A ::
g2d g2d gdB | g2d gde f2A | g2d Te2d Bde | f2F (A/B/c)A f2A ::
BGG dGG Bdg | BGG gde f2A | BGG dGG Bde | f2F (A/B/c)A f2A ::
g3 dBe dBG | g3 dBd f2A | g2d Te2d Bde | fFF cAA f2A :|


